X:1
T:Title
%%score { ( 1 3 5 ) | ( 2 4 ) }
L:1/8
M:3/4
K:Bb
V:1 treble nm="Grand Piano"
V:3 treble 
V:5 treble 
V:2 bass 
V:4 bass 
V:1
 z2 z2[Q:1/4=100] [DF]2 | [DF]3 [Fd] [Ec][DB] | [GB]2 [FA]2 G2 | F3 G [CE][DF] |[M:3/8] D3 | FGA | %6
[M:3/4] [DB]2 [DF][Fd] [Fc][FB] | [GB]2 [FA]2 G2 | FF G2 A2 |[M:2/4] [B,DB]4 |[M:1/4] F2 | %11
[M:3/4] cc A2 F2 | [Fd][Fd] [DB]2 [EG]2 | [DF]2 [DF]2 FA | %14
[M:23/32] z/4 z/4 z/4 z/4 z/4 z/4 z/ d3/4 z/4 z/4 z/4 z/4 z/4 z/4 z/4 z/4 z/4 z/4 z/ |[M:1/4] z2 | %16
[M:3/4] (7:8:7[Fd]3/4-[Fd]3/2-[Fd]3/8[FB]3/4[Gc]-[Gc]/8[Ge]3/4 | (3[Fd]3 [Fd]3 [Fd]3 | %18
 (7:8:7[=Ec]3/4-[Ec]3/2-[Ec]3/8[Ed]3/4[Ec]-[Ec]/8E3/4 |[M:3/8] F3 | (3F3/2G3/2A3/2 | %21
[M:3/4] (7:8:7[DB]3/2-[DB]3/8[DF]3/4[Fd]3/4[Fc]-[Fc]/8[FB]3/4 | (3[GB]3 [FA]3 G3 | %23
 (7:8:8F3/4F-F/8G3/8-G-G/8A3/8-A3/2 |[M:2/4] [DB]4 |] %25
V:2
 z2 z2 [B,,B,]2 | [B,,B,]3 [B,,B,] [B,,B,][B,,B,] | [E,B,]2 [E,B,]2 [E,B,E]2 | %3
 [F,B,D]3 [F,E] [F,,F,][F,,F,] |[M:3/8] [B,,F,B,]3 | F,[F,=E][F,_E] | %6
[M:3/4] [B,,F,]2 [B,,B,][B,,B,] [C,A,][D,B,] | [E,B,]2 [E,B,]2 [E,B,E]2 | %8
 [F,B,D][F,B,D] [F,A,E]2 [F,CE]2 |[M:2/4] B,,4 |[M:1/4] F,2 | %11
[M:3/4] [F,A,F][F,A,F] [F,CF]2 [F,A,]2 | [B,,B,][B,,B,] [B,,F,]2 [B,,B,]2 | %13
 [B,,B,]2 [B,,B,]2 [F,A,E][F,CE] | %14
[M:23/32] z/4 z/4 z/4 z/4 z/4 z/4 z/ [F,A,E]3/4 z/4 z/4 z/4 z/4 z/4 z/4 z/4 z/4 z/4 z/4 z/ | %15
[M:1/4] [B,,B,]2 |[M:3/4] (7:8:7[B,,B,]3/4-[B,,B,]3/2-[B,,B,]3/8[D,B,]3/4[E,B,]-[E,B,]/8[E,B,]3/4 | %17
 (3[B,,B,]3 [D,B,]3 [G,B,]3 | %18
 (7:8:7[C,B,]3/4-[C,B,]3/2-[C,B,]3/8[C,B,]3/4[C,B,]-[C,B,]/8[C,B,C]3/4 |[M:3/8] [F,A,C]3 | %20
 (3F,3/2[F,=E]3/2[F,_E]3/2 | %21
[M:3/4] (7:8:7[B,,F,]3/2-[B,,F,]3/8[B,,B,]3/4[B,,B,]3/4[C,A,]-[C,A,]/8[D,B,]3/4 | %22
 (3[E,B,]3 [E,B,]3 [E,B,E]3 | %23
 (7:8:8[F,B,D]3/4[F,B,D]-[F,B,D]/8[F,A,E]3/8-[F,A,E]-[F,A,E]/8[F,CE]3/8-[F,CE]3/2 | %24
[M:2/4] [B,,B,]4 |] %25
V:3
 x6 | x6 | x6 | x6 |[M:3/8] x3 | x3 |[M:3/4] x6 | x6 | x6 |[M:2/4] x4 |[M:1/4] x2 |[M:3/4] x6 | %12
 x6 | x6 | %14
[M:23/32] c/4-c/4-c/4-c/4-c/4-c/4-c/-<c/[DB]/4-[DB]/4-[DB]/4-[DB]/4-[DB]/4-[DB]/4-[DB]/4-[DB]/4-[DB]/4-[DB]/-<[DB]/- | %15
[M:1/4] [DB]/4 z/4 z/ z |[M:3/4] x6 | x6 | x6 |[M:3/8] x3 | x3 |[M:3/4] x6 | x6 | x6 |[M:2/4] x4 |] %25
V:4
 x6 | x6 | x6 | x6 |[M:3/8] x3 | x3 |[M:3/4] x6 | x6 | x6 |[M:2/4] x4 |[M:1/4] x2 |[M:3/4] x6 | %12
 x6 | x6 | %14
[M:23/32] [F,A,E]/4-[F,A,E]/4-[F,A,E]/4-[F,A,E]/4-[F,A,E]/-<[F,A,E]/ z/ [B,,B,]/4-[B,,B,]/4-[B,,B,]/4-[B,,B,]/4-[B,,B,]/4-[B,,B,]/4-[B,,B,]/4-[B,,B,]/4-[B,,B,]/4-[B,,B,]/-<[B,,B,]/ | %15
[M:1/4] x2 |[M:3/4] x6 | x6 | x6 |[M:3/8] x3 | x3 |[M:3/4] x6 | x6 | x6 |[M:2/4] x4 |] %25
V:5
 x6 | x6 | x6 | x6 |[M:3/8] x3 | x3 |[M:3/4] x6 | x6 | x6 |[M:2/4] x4 |[M:1/4] x2 |[M:3/4] x6 | %12
 x6 | x6 |[M:23/32] x23/4 |[M:1/4] [Fd]2 |[M:3/4] x6 | x6 | x6 |[M:3/8] x3 | x3 |[M:3/4] x6 | x6 | %23
 x6 |[M:2/4] x4 |] %25

